modules/hawcons-filled/icons/icon-10-winking-face.svg

<?xml version="1.0" encoding="UTF-8" standalone="no"?>
<svg width="32px" height="32px" viewBox="0 0 32 32" version="1.1" xmlns="http://www.w3.org/2000/svg" xmlns:xlink="http://www.w3.org/1999/xlink" xmlns:sketch="http://www.bohemiancoding.com/sketch/ns">
    <!-- Generator: Sketch 3.0.3 (7891) - http://www.bohemiancoding.com/sketch -->
    <title>icon 10 winking face</title>
    <desc>Created with Sketch.</desc>
    <defs></defs>
    <g id="Page-1" stroke="none" stroke-width="1" fill="none" fill-rule="evenodd" sketch:type="MSPage">
        <g id="icon-10-winking-face" sketch:type="MSArtboardGroup" fill="#929292">
            <path d="M16.5,29 C23.4035597,29 29,23.4035597 29,16.5 C29,9.59644029 23.4035597,4 16.5,4 C9.59644029,4 4,9.59644029 4,16.5 C4,23.4035597 9.59644029,29 16.5,29 Z M15.5186768,22 L18.5077842,22 C19.3319123,22 20,21.3228912 20,20.5046844 L20,20 L21,20 C21,20 21,20.5 21,21 C21,22 20,23 19,23 L15.5186768,23 L12,23 L12,22 L15.5186768,22 Z M21,14 C21.5522848,14 22,13.5522848 22,13 C22,12.4477152 21.5522848,12 21,12 C20.4477152,12 20,12.4477152 20,13 C20,13.5522848 20.4477152,14 21,14 Z M11,13 L11,14 L15,14 L15,13 L11,13 Z" id="winking-face" sketch:type="MSShapeGroup"></path>
        </g>
    </g>
</svg>

<svg width="32" height="32" xmlns="http://www.w3.org/2000/svg"><path d="M16.5 29C23.404 29 29 23.404 29 16.5S23.404 4 16.5 4 4 9.596 4 16.5 9.596 29 16.5 29zm-.981-7h2.989c.824 0 1.492-.677 1.492-1.495V20h1v1c0 1-1 2-2 2h-7v-1h3.519zM21 14a1 1 0 1 0 0-2 1 1 0 0 0 0 2zm-10-1v1h4v-1h-4z" fill="#929292" fill-rule="evenodd"/></svg>
